alternatives/kde-colorscheme/96/places/folder-vbox-open.svg

<?xml version="1.0" encoding="UTF-8" standalone="no"?>
<!-- Created with Inkscape (http://www.inkscape.org/) -->

<svg
   width="96"
   height="96"
   viewBox="0 0 96 96"
   version="1.1"
   id="svg5"
   inkscape:version="1.2.2 (1:1.2.2+202305151914+b0a8486541)"
   sodipodi:docname="folder-vbox-open.svg"
   xmlns:inkscape="http://www.inkscape.org/namespaces/inkscape"
   xmlns:sodipodi="http://sodipodi.sourceforge.net/DTD/sodipodi-0.dtd"
   xmlns="http://www.w3.org/2000/svg"
   xmlns:svg="http://www.w3.org/2000/svg">
  <sodipodi:namedview
     id="namedview7"
     pagecolor="#ffffff"
     bordercolor="#000000"
     borderopacity="0.25"
     inkscape:showpageshadow="2"
     inkscape:pageopacity="0.0"
     inkscape:pagecheckerboard="0"
     inkscape:deskcolor="#d1d1d1"
     inkscape:document-units="px"
     showgrid="false"
     inkscape:zoom="8.3958333"
     inkscape:cx="47.940447"
     inkscape:cy="48"
     inkscape:window-width="1920"
     inkscape:window-height="1008"
     inkscape:window-x="0"
     inkscape:window-y="0"
     inkscape:window-maximized="1"
     inkscape:current-layer="svg5" />
  <defs
     id="defs2">
    <style
       id="current-color-scheme"
       type="text/css">
         .ColorScheme-Text { color:#232629; }
         .ColorScheme-Highlight { color:#3daee9; }
     </style>
  </defs>
  <path
     d="m 12,13 c -3.323997,0 -6,2.676004 -6,6 v 60 c 0,3.323996 2.676003,6 6,6 h 72 c 3.323996,0 6,-2.676004 6,-6 V 29 c 0,-3.323996 -2.676004,-6 -6,-6 H 48 l -6,-7 c -1.6357,-1.836774 -2.676004,-3 -6,-3 z"
     style="opacity:0.3;fill:#000000;stroke-width:3"
     id="path1016"
     sodipodi:nodetypes="ssssssssccss" />
  <path
     id="rect184"
     style="fill:currentColor;fill-opacity:1;stroke-width:4"
     class="ColorScheme-Highlight"
     d="m 12,12 c -3.3239968,0 -6,2.676002 -6,6 v 60 c 0,3.323996 2.6760032,6 6,6 h 72 c 3.323996,0 6,-2.676004 6,-6 V 28 c 0,-3.323996 -2.676004,-6 -6,-6 H 48 l -6,-7 c -1.672966,-2.152788 -2.676004,-3 -6,-3 z"
     sodipodi:nodetypes="sccsssssccss" />
  <path
     id="path1511"
     style="opacity:0.4;fill:#000000;fill-opacity:1;stroke-width:2"
     d="m 12,12 c -3.323988,0 -6,2.676008 -6,6 v 26 c 0,-3.313698 2.686306,-6 6,-6 h 24 c 3.323984,0 3.999588,-1.158078 6,-3 l 6,-7 h 36 c 3.323994,0 6,2.676006 6,6 v -6 c 0,-3.323994 -2.676006,-6 -6,-6 H 48 l -6,-7 c -1.672962,-2.152784 -2.67601,-3 -6,-3 z" />
  <path
     id="path3081"
     style="opacity:0.2;fill:#ffffff;stroke-width:3"
     d="m 48,28 -6,7 c -2.000414,1.841926 -2.67601,3 -6,3 H 12 c -3.313698,0 -6,2.6863 -6,6 v 1 c 0,-3.3137 2.686302,-6 6,-6 h 24 c 3.32399,0 3.999586,-1.158074 6,-3 l 6,-7 h 36 c 3.323984,0 6,2.676016 6,6 v -1 c 0,-3.323984 -2.676016,-6 -6,-6 z"
     sodipodi:nodetypes="ccssscssccscssc" />
  <path
     id="rect1517"
     style="opacity:0.6;fill:currentColor;stroke:none;stroke-width:2;stroke-linecap:round;stroke-linejoin:round"
     class="ColorScheme-Text"
     d="m 36,46 c -2.215996,0 -4,1.784004 -4,4 v 24 c 0,2.215996 1.784004,4 4,4 h 24 c 2.215996,0 4,-1.784004 4,-4 V 50 c 0,-2.215996 -1.784004,-4 -4,-4 z m 0,2 h 24 c 1.107996,0 2,0.892004 2,2 V 62 H 56.722656 L 53.949218,51.683594 c -0.303098,-0.91355 -1.595338,-0.91355 -1.898436,0 L 50,59.835938 47.949218,51.683594 c -0.14056,-0.422436 -0.54342,-0.7011 -0.98828,-0.683594 -0.443794,0.0182 -0.822454,0.32679 -0.929688,0.757812 l -4.167968,17.66797 -1.914064,-6.742188 C 39.812958,62.275156 39.430572,61.999776 39,62 H 34 V 50 c 0,-1.107996 0.892004,-2 2,-2 z m 17,7.164062 2.050782,8.152344 C 55.187042,63.724846 55.569428,64.000226 56,64 h 6 v 10 c 0,1.107996 -0.892004,2 -2,2 H 36 c -1.107996,0 -2,-0.892004 -2,-2 V 64 h 4.277344 l 2.773438,9.316406 c 0.317806,0.946718 1.674266,0.894228 1.917968,-0.07422 l 4.167968,-17.66797 1.914064,7.742188 c 0.303098,0.913552 1.59534,0.913552 1.898436,0 z" />
</svg>

<?xml version="1.0" encoding="UTF-8" standalone="no"?>
<!-- Created with Inkscape (http://www.inkscape.org/) -->

<svg
   width="96"
   height="96"
   viewBox="0 0 96 96"
   version="1.1"
   id="svg5"
   inkscape:version="1.2.2 (b0a8486541, 2022-12-01)"
   sodipodi:docname="folder-vbox-open.svg"
   xmlns:inkscape="http://www.inkscape.org/namespaces/inkscape"
   xmlns:sodipodi="http://sodipodi.sourceforge.net/DTD/sodipodi-0.dtd"
   xmlns="http://www.w3.org/2000/svg"
   xmlns:svg="http://www.w3.org/2000/svg">
  <sodipodi:namedview
     id="namedview7"
     pagecolor="#ffffff"
     bordercolor="#000000"
     borderopacity="0.25"
     inkscape:showpageshadow="2"
     inkscape:pageopacity="0.0"
     inkscape:pagecheckerboard="0"
     inkscape:deskcolor="#d1d1d1"
     inkscape:document-units="px"
     showgrid="false"
     inkscape:zoom="8.4375"
     inkscape:cx="48.059259"
     inkscape:cy="48.177778"
     inkscape:window-width="1920"
     inkscape:window-height="1000"
     inkscape:window-x="0"
     inkscape:window-y="0"
     inkscape:window-maximized="1"
     inkscape:current-layer="svg5" />
  <defs
     id="defs2">
    <style
       id="current-color-scheme"
       type="text/css">
         .ColorScheme-Highlight { color:#3daee9; }
     </style>
  </defs>
  <path
     d="m 12,13 c -3.323997,0 -6,2.676004 -6,6 v 60 c 0,3.323996 2.676003,6 6,6 h 72 c 3.323996,0 6,-2.676004 6,-6 V 29 c 0,-3.323996 -2.676004,-6 -6,-6 H 48 l -6,-7 c -1.6357,-1.836774 -2.676004,-3 -6,-3 z"
     style="opacity:0.3;fill:#000000;stroke-width:3"
     id="path1016"
     sodipodi:nodetypes="ssssssssccss" />
  <path
     id="rect184"
     style="fill:currentColor;fill-opacity:1;stroke-width:4"
     class="ColorScheme-Highlight"
     d="m 12,12 c -3.3239968,0 -6,2.676002 -6,6 v 60 c 0,3.323996 2.6760032,6 6,6 h 72 c 3.323996,0 6,-2.676004 6,-6 V 28 c 0,-3.323996 -2.676004,-6 -6,-6 H 48 l -6,-7 c -1.672966,-2.152788 -2.676004,-3 -6,-3 z"
     sodipodi:nodetypes="sccsssssccss" />
  <path
     id="path1511"
     style="opacity:0.4;fill:#000000;fill-opacity:1;stroke-width:2"
     d="M 12 12 C 8.6760106 12 6 14.676008 6 18 L 6 44 C 6 40.686303 8.6863049 38 12 38 L 36 38 C 39.323985 38 39.999588 36.841922 42 35 L 48 28 L 84 28 C 87.323994 28 90 30.676006 90 34 L 90 28 C 90 24.676006 87.323994 22 84 22 L 48 22 L 42 15 C 40.327038 12.847216 39.32399 12 36 12 L 12 12 z " />
  <path
     id="path3081"
     style="opacity:0.2;fill:#ffffff;stroke-width:3"
     d="m 48,28 -6,7 c -2.000414,1.841926 -2.67601,3 -6,3 H 12 c -3.3136982,0 -6,2.6863 -6,6 v 1 c 0,-3.3137 2.6863018,-6 6,-6 h 24 c 3.32399,0 3.999586,-1.158074 6,-3 l 6,-7 h 36 c 3.323984,0 6,2.676016 6,6 v -1 c 0,-3.323984 -2.676016,-6 -6,-6 z"
     sodipodi:nodetypes="ccssscssccscssc" />
  <path
     id="rect1517"
     style="opacity:0.6;fill:#ffffff;stroke:none;stroke-width:2;stroke-linecap:round;stroke-linejoin:round"
     d="m 36,46 c -2.215996,0 -4,1.784004 -4,4 v 24 c 0,2.215996 1.784004,4 4,4 h 24 c 2.215996,0 4,-1.784004 4,-4 V 50 c 0,-2.215996 -1.784004,-4 -4,-4 z m 0,2 h 24 c 1.107996,0 2,0.892004 2,2 V 62 H 56.722656 L 53.949218,51.683594 c -0.303098,-0.91355 -1.595338,-0.91355 -1.898436,0 L 50,59.835938 47.949218,51.683594 c -0.14056,-0.422436 -0.54342,-0.7011 -0.98828,-0.683594 -0.443794,0.0182 -0.822454,0.32679 -0.929688,0.757812 l -4.167968,17.66797 -1.914064,-6.742188 C 39.812958,62.275156 39.430572,61.999776 39,62 H 34 V 50 c 0,-1.107996 0.892004,-2 2,-2 z m 17,7.164062 2.050782,8.152344 C 55.187042,63.724846 55.569428,64.000226 56,64 h 6 v 10 c 0,1.107996 -0.892004,2 -2,2 H 36 c -1.107996,0 -2,-0.892004 -2,-2 V 64 h 4.277344 l 2.773438,9.316406 c 0.317806,0.946718 1.674266,0.894228 1.917968,-0.07422 l 4.167968,-17.66797 1.914064,7.742188 c 0.303098,0.913552 1.59534,0.913552 1.898436,0 z" />
</svg>
